X:1
T:Title
%%score { ( 1 4 5 ) | ( 2 3 ) }
L:1/8
Q:1/4=96
M:4/4
K:D
V:1 treble nm="Grand Piano"
V:4 treble 
V:5 treble 
V:2 bass 
V:3 bass 
V:1
 A2 F>B A2 F2 | [FA][EG][DF][CE] [DF]4 | [DB]2 [DF]>[Ec] [DB]2 [DF]2 | ^GdcB [CA]4 | %4
w: D.~B.~Towner * * * *||||
 [EG]>[EG] [EG][EG] [EG][DF][CE][EG] | FFF[GB] [FA]3 [FA] | %6
w: ||
[M:17/16] [Fd]>[Fd][Fc].[B,GB][DFA][DFB][A,DF]3/2[^G,D] | %7
w: |
[M:4/4] [A,DF][A,DF][K:bass] [G,CE]>[F,D] [F,D]4 | [Fd]2 .[EA]2 [Gc]2 .[CEG]2 | [DGB]4 [DFA]2 z2 | %10
w: |||
 [CEG]F[CE]F [A,EG]2 [CGB]2 |[M:3/4] [DFA]4 [DF]2 |[M:1/4] [DA]2 |[M:4/4] [Fd]4 [Gc]4 | %14
w: ||||
 B2 A2 [G,DG]2[K:bass] [G,B,E]2 | [F,A,D][K:treble] [A,DF]3 [G,CE]3[K:bass] [F,D] | [F,D]6 z2 |] %17
w: |||
V:2
 [D,F,D]2 [D,A,D]>[D,G,D] [D,F,D]2 [D,A,D]2 | [A,,A,][A,,A,][A,,A,][A,,A,] [D,A,]4 | %2
 [B,,F,]2 [B,,B,]>[B,,G,] [B,,F,]2 [B,,B,]2 | [E,B,E][E,B,E][E,A,E][E,^G,D] [A,,A,]4 | %4
 [A,,A,]>[A,,A,] [A,,A,][A,,A,] [A,,A,][A,,A,][A,,A,][A,,A,] | %5
 [D,A,D][D,A,D][D,A,D][D,D] [D,D]3 [D,D] |[M:17/16] [D,A,]>[D,A,].[D,A,]>CD,D,D,3/2B,, | %7
[M:4/4] B,,A,, A,,>D, D,4 | [D,A,]2 .[D,D]2 [E,A,]2 .A,,2 | D,4 D,2 z2 | z D z D A,,2 A,,2 | %11
[M:3/4] z2 z2 A,2 |[M:1/4] [D,F,]2 |[M:4/4] [D,A,]2 z F [E,A,]2 z E | G,2 z2 z4 | %15
 A,, A,,3 A,,3 D, | D,6 z2 |] %17
V:3
 x8 | x8 | x8 | x8 | x8 | x8 |[M:17/16] z/ z/ z/ z/ z D, z/ z/ z/ z/ z/ z/ z/ z |[M:4/4] x8 | x8 | %9
 x8 | A,,2 [A,,A,]2 z4 |[M:3/4] D,6 |[M:1/4] x2 |[M:4/4] z2 D,2 z2 A,,2 | %14
 [D,D]2- [D,F,D]2 B,,2 G,,2 | x8 | x8 |] %17
V:4
 x8 | x8 | x8 | x8 | x8 | x8 |[M:17/16] x17/2 |[M:4/4] x2[K:bass] x6 | x8 | x8 | x8 |[M:3/4] x6 | %12
[M:1/4] x2 |[M:4/4] z2 z A z2 z G | x6[K:bass] x2 | x[K:treble] x6[K:bass] x | x8 |] %17
V:5
 x8 | x8 | x8 | x8 | x8 | x8 |[M:17/16] x17/2 |[M:4/4] x2[K:bass] x6 | x8 | x8 | x8 |[M:3/4] x6 | %12
[M:1/4] x2 |[M:4/4] z2 A,2 z2 A,2 | x6[K:bass] x2 | x[K:treble] x6[K:bass] x | x8 |] %17

